X: 38805
T: Sue Morley's
R: jig
M: 6/8
K: Adorian
|:~A3 BcB|AGE DE/F/G|~A3 cAe|AdA cAG|
~A3 BcB|AGE DE/F/G|~A3 BAG|1 ~A3 EFG:|2 ~A3 A3||
|:~e3 ~a3|ged G(3A/B/c/d|~e3 c'3|bag ag/e/d|
~e3 ~a3|ged G(3A/B/c/d|~e3 dBG|1 ~A3 AB/c/d:|2 ~A3 EFG||

